X:659
T:Iste kornbodsmarsch
C:Peter Hedlund
R:Marsch
O:Iste, Hälsingland
M:2/4
L:1/16
K:G

|: D2 | B2AB c2Bc | d2cd e2g2 | f2df e2ce | d6 c2 |
B2GB A2FA | G2DB E3G | C2EG D2FA | G6 :|
|: G2 | F2DF A2Ac | B2GB d2d2 | e2^ce g2ba | f4 z edc |
B2GB A2FA | G2DG E3D | C2EG D2FA | G6 :|


(:musicend:)

(:music:)
